X: 1
T: H\aargal\aaten
O: trad. Sweden
R: hambo, polska
S: Fiddle Hell Online 2020-11-05
Z: 2020 John Chambers <jc:trillian.mit.edu>
M: 3/4
L: 1/8
P: (AABABA CDCD)xN + A
K: Am
"^A"|: "Am"e2 e>f e>d |     d>c c2 A>c | "E7"c<B B>E ^G>B |1,3 "Am"c>B A>B c>d :|2,4 "Am"A2 "fine"A4 :|
"^B"|: "C"c>d e2  c>c | "G7"d>e f2 d>d |     g2  g>a  g>f |     "C"f>e e4      :|
%%text Play A again
"^C"|: "Am"AB/A/ ^G2 A2 | "E7"Bc/B/ A2 B2  | "Am"c>d c>B  c>d |1 "E7"e>f e>d c>B :| "C"e2 "(D7)"f2 ^f2 ||
"^D"[| "G7"g>f d2 (3def |  "C"e>d   c4     | "E7"e>d B2 (3Bcd |  "Am"c>B A2 \
     | "Dm"a>f d2 (3def | "Am"e>c   A2 A>c | "E7"B2  B>d  c>B |  "Am"Az "_d.C."A4 |]
